X: 995
T: Hem Okudum Hemi de Yazdım
C: Ali Ciyez
O: Turkey
F: http://compmusic.upf.edu/node/140
N: tahir--turku--musemmen_ii--hem_okudum--corum
N: makam= tahir
N: form= turku
N: usul= musemmen_ii = 8/8
M: 8/8
L: 1/16
K: C _2/4B ^3/4f  
Q: 1/4=192
%%MIDI tuningsystem comma53
z2 e=f ff3  | e=f g2 fe d2  | Bc dc d2 cB  | \
w:   |   |   | 
cB BA cB2A  | 
w:   | 
A3B cd eg  | z2 e=f ff3  | e=f g2 fe d2  | \
w:   |   |   | 
Bc dc d2 cB  | 
w:   | 
cB BA cB2A  | A3c' c'b c'2  | c'/b/a/g/ c'c' c'c'2b  | 
w:   |   |  *  *  *  *  Hem_ o ku dum   | 
bb ba a2 a2  | fg a2 a2 a2  | g^2/4f ed dc dB  | \
w:  he mi  *  de  yaz dım    |  Ya lan  *  dün ya   |  sen *  den  *  bez *  dim   | 
c4 zg ab  | 
w:  of   SAZ  | 
c'/b/a/g/ c'c' c'c'2b  | bb ba a2 a2  | \
w:  *  *  *  *  Hem_ o ku dum   |  he mi  *  de  yaz dım    | 
fg a2 a2 a2  | g^2/4f ed dc dB  | 
w:  Ya lan  *  dün ya   |  sen *  den  *  bez *  dim   | 
c4 zc de  | =f2 ef ff3  | e^2/4f g2 =fe d2  | \
w:  of   SAZ  |  *  Dağ lar  ko ya  |  ğı *  nı  gez *  dim    | 
Bc dc d2 cB  | 
w:  Yi ten  *  *  yav ru   | 
cB BA c/B/A A2  | A8  | =f2 ef ff3  | e^2/4f g2 =fe d2  | \
w:  bu lu *  *  nur  *  *  mu   |  vay    |  *  Dağ lar  ko ya  |  ğı *  nı  gez *  dim    | 
Bc dc d2 cB  | 
w:  Yi ten  *  *  yav ru   | 
cB BA c/B/A A2  | A8  | z2 e=f ff3  | e=f g2 fe d2  | \
w:  bu lu *  *  nur  *  *  mu   |  vay    |   |   | 
Bc dc d2 cB  | 
w:   | 
cB BA cB2A  | A3B cd eg  | z2 e=f ff3  | \
w:   |   |   | 
e=f g2 fe d2  | 
w:   | 
Bc dc d2 cB  | cB BA cB2A  | A3c' c'b c'2  | \
w:   |   |   | 
c'/b/a/g/ c'c' c'c'2b  | 
w:  *  *  *  *  Hem_ o ku dum   | 
bb ba a2 a2  | fg a2 a2 a2  | g^2/4f ed dc dB  | \
w:  he mi  *  de  yaz dım    |  Ya lan  *  dün ya   |  sen *  den  *  bez *  dim   | 
c4 zg ab  | 
w:  of   SAZ  | 
c'/b/a/g/ c'c' c'c'2b  | bb ba a2 a2  | \
w:  *  *  *  *  Hem_ o ku dum   |  he mi  *  de  yaz dım    | 
fg a2 a2 a2  | g^2/4f ed dc dB  | 
w:  Ya lan  *  dün ya   |  sen *  den  *  bez *  dim   | 
c4 zc de  | =f2 ef ff3  | e^2/4f g2 =fe d2  | \
w:  of   SAZ  |  *  Dağ lar  ko ya  |  ğı *  nı  gez *  dim    | 
Bc dc d2 cB  | 
w:  Yi ten  *  *  yav ru   | 
cB BA c/B/A A2  | A8  | =f2 ef ff3  | e^2/4f g2 =fe d2  | \
w:  bu lu *  *  nur  *  *  mu   |  vay    |  *  Dağ lar  ko ya  |  ğı *  nı  gez *  dim    | 
Bc dc d2 cB  | 
w:  Yi ten  *  *  yav ru   | 
cB BA c/B/A A2  | A8  | |


